Catalina-dark/status/16/weather-few-clouds-symbolic.svg

<?xml version="1.0" encoding="UTF-8" standalone="no"?>
<!-- Created with Inkscape (http://www.inkscape.org/) -->

<svg
   xmlns:osb="http://www.openswatchbook.org/uri/2009/osb"
   xmlns:dc="http://purl.org/dc/elements/1.1/"
   xmlns:cc="http://creativecommons.org/ns#"
   xmlns:rdf="http://www.w3.org/1999/02/22-rdf-syntax-ns#"
   xmlns:svg="http://www.w3.org/2000/svg"
   xmlns="http://www.w3.org/2000/svg"
   xmlns:sodipodi="http://sodipodi.sourceforge.net/DTD/sodipodi-0.dtd"
   xmlns:inkscape="http://www.inkscape.org/namespaces/inkscape"
   sodipodi:docname="weather-few-clouds-symbolic.svg"
   inkscape:export-filename="/home/sam/source-symbolic.png"
   inkscape:export-xdpi="270"
   inkscape:export-ydpi="270"
   height="16"
   id="svg7384"
   style="enable-background:new"
   version="1.1"
   inkscape:version="0.91 r13725"
   width="16">
  <sodipodi:namedview
     inkscape:bbox-nodes="true"
     inkscape:bbox-paths="true"
     bordercolor="#666666"
     borderlayer="false"
     borderopacity="1"
     inkscape:current-layer="svg7384"
     inkscape:cx="1.4135524"
     inkscape:cy="4.6977162"
     gridtolerance="10"
     inkscape:guide-bbox="true"
     guidetolerance="10"
     id="namedview88"
     inkscape:object-nodes="true"
     inkscape:object-paths="true"
     objecttolerance="10"
     pagecolor="#f7f7f7"
     inkscape:pageopacity="1"
     inkscape:pageshadow="2"
     showborder="true"
     showgrid="false"
     showguides="true"
     inkscape:showpageshadow="false"
     inkscape:snap-bbox="true"
     inkscape:snap-bbox-edge-midpoints="false"
     inkscape:snap-bbox-midpoints="false"
     inkscape:snap-center="false"
     inkscape:snap-global="true"
     inkscape:snap-grids="true"
     inkscape:snap-intersection-paths="true"
     inkscape:snap-midpoints="true"
     inkscape:snap-nodes="true"
     inkscape:snap-object-midpoints="true"
     inkscape:snap-others="true"
     inkscape:snap-page="false"
     inkscape:snap-smooth-nodes="true"
     inkscape:snap-to-guides="true"
     inkscape:window-height="701"
     inkscape:window-maximized="0"
     inkscape:window-width="1362"
     inkscape:window-x="0"
     inkscape:window-y="28"
     inkscape:zoom="22.627417">
    <inkscape:grid
       color="#000000"
       dotted="false"
       empcolor="#0800ff"
       empopacity="0.4627451"
       empspacing="4"
       enabled="true"
       id="grid4866"
       opacity="0.16470588"
       originx="-164px"
       originy="-548px"
       snapvisiblegridlinesonly="true"
       spacingx="0.25px"
       spacingy="0.25px"
       type="xygrid"
       visible="true" />
  </sodipodi:namedview>
  <metadata
     id="metadata90">
    <rdf:RDF>
      <cc:Work
         rdf:about="">
        <dc:format>image/svg+xml</dc:format>
        <dc:type
           rdf:resource="http://purl.org/dc/dcmitype/StillImage" />
        <dc:title>Paper Symbolic Icon Theme</dc:title>
      </cc:Work>
    </rdf:RDF>
  </metadata>
  <title
     id="title8473">Paper Symbolic Icon Theme</title>
  <defs
     id="defs7386">
    <linearGradient
       id="linearGradient5606"
       osb:paint="solid">
      <stop
         id="stop5608"
         offset="0"
         style="stop-color:#000000;stop-opacity:1;" />
    </linearGradient>
  </defs>
  <path
     inkscape:connector-curvature="0"
     d="m 9.481722,7.4027519 c -1.1853071,0 -2.1731293,0.7783813 -2.5415317,1.8418355 -1.1122465,0.1414258 -1.9767468,1.0840816 -1.9767468,2.2385386 0,1.251958 1.0114528,2.266874 2.2591392,2.266874 l 4.9701063,0 C 13.19084,13.75 14,12.938069 14,11.936501 c 0,-1.001569 -0.80916,-1.813499 -1.807311,-1.813499 0,-1.5023492 -1.213746,-2.7202501 -2.710967,-2.7202501 z"
     id="path6304"
     style="display:inline;fill:#bebebe;fill-opacity:1;stroke:none;enable-background:new" />
  <path
     id="path9701"
     style="fill:#bebebe;fill-opacity:1;opacity:0.666"
     d="m 6.695395,4.9702493 c 1.4972219,0 2.7109671,1.217901 2.7109671,2.7202493 0,1.5023484 -1.2137452,2.7202494 -2.7109671,2.7202494 -1.497222,0 -2.7109671,-1.217901 -2.7109671,-2.7202494 0,-1.5023483 1.2137451,-2.7202493 2.7109671,-2.7202493 m 0,-2.7202493 1.2958423,1.8606506 C 7.5900141,3.963757 7.1508375,3.8821495 6.695395,3.8821495 c -0.4554425,0 -0.8946192,0.081608 -1.2958423,0.2285011 L 6.695395,2.25 M 2,4.9702493 4.2555246,4.7798319 C 3.9302086,5.0572973 3.6374241,5.3946082 3.4097029,5.7863241 3.1711378,6.188921 3.0355894,6.6023989 2.9596823,7.0321983 L 2,4.9702493 M 2.010844,10.410748 2.9651044,8.3596799 C 3.0410114,8.7785984 3.1874037,9.2029572 3.4151249,9.5946732 3.6428462,9.99727 3.9356306,10.334581 4.2555247,10.612046 L 2.0108439,10.410748 M 11.385368,4.9702493 10.425686,7.0321983 C 10.349779,6.6023989 10.203386,6.1834805 9.9756652,5.7863241 9.7479439,5.3946082 9.4605814,5.0518568 9.1352654,4.7743913 l 2.2501026,0.195858 m -0.0054,5.4404987 -2.2446806,0.195858 C 9.4551595,10.32914 9.742522,9.98639 9.9702432,9.5946732 10.197965,9.1975168 10.344357,8.7785984 10.420264,8.348799 l 0.959682,2.061949 m -4.684551,2.72025 -1.3066861,-1.871532 c 0.4012231,0.146893 0.8403997,0.239381 1.3066861,0.239381 0.4445986,0 0.8837753,-0.09248 1.2849984,-0.239381 z"
     inkscape:connector-curvature="0" />
</svg>

<svg width="16" height="16" enable-background="new" version="1.1" xmlns="http://www.w3.org/2000/svg">
<path d="m9.4817 7.4028c-1.1853 0-2.1731 0.77838-2.5415 1.8418-1.1122 0.14143-1.9767 1.0841-1.9767 2.2385 0 1.252 1.0115 2.2669 2.2591 2.2669h4.9701c0.99815 0 1.8073-0.81193 1.8073-1.8135 0-1.0016-0.80916-1.8135-1.8073-1.8135 0-1.5023-1.2137-2.7203-2.711-2.7203z" enable-background="new" fill="#bebebe"/>
<path d="m6.6954 4.9702c1.4972 0 2.711 1.2179 2.711 2.7202 0 1.5023-1.2137 2.7202-2.711 2.7202-1.4972 0-2.711-1.2179-2.711-2.7202 0-1.5023 1.2137-2.7202 2.711-2.7202m0-2.7202 1.2958 1.8607c-0.40122-0.14689-0.8404-0.2285-1.2958-0.2285s-0.89462 0.081608-1.2958 0.2285l1.2958-1.8607m-4.6954 2.7202 2.2555-0.19042c-0.32532 0.27747-0.6181 0.61478-0.84582 1.0065-0.23857 0.4026-0.37411 0.81607-0.45002 1.2459l-0.95968-2.0619m0.010844 5.4405 0.95426-2.0511c0.075907 0.41892 0.2223 0.84328 0.45002 1.235 0.22772 0.4026 0.52051 0.73991 0.8404 1.0174l-2.2447-0.2013m9.3745-5.4405-0.95968 2.0619c-0.075907-0.4298-0.2223-0.84872-0.45002-1.2459-0.22772-0.39172-0.51508-0.73447-0.8404-1.0119l2.2501 0.19586m-0.0054 5.4405-2.2447 0.19586c0.31987-0.27747 0.60723-0.62022 0.83496-1.0119 0.22772-0.39716 0.37411-0.81607 0.45002-1.2459l0.95968 2.0619m-4.6846 2.7202-1.3067-1.8715c0.40122 0.14689 0.8404 0.23938 1.3067 0.23938 0.4446 0 0.88378-0.09248 1.285-0.23938z" fill="#bebebe" opacity=".666"/>
</svg>
